packages/bezier-icons/icons/business-guy.svg

<svg width="24" height="24" viewBox="0 0 24 24" fill="none" xmlns="http://www.w3.org/2000/svg">
<path fill-rule="evenodd" clip-rule="evenodd" d="M7.50022 6.50012C7.50022 4.01512 9.51522 2.00012 12.0002 2.00012C14.4852 2.00012 16.5002 4.01512 16.5002 6.50012C16.5002 8.98512 14.4852 11.0001 12.0002 11.0001C9.51522 11.0001 7.50022 8.98512 7.50022 6.50012ZM14.5002 6.50012C14.5002 5.12212 13.3782 4.00012 12.0002 4.00012C10.6212 4.00012 9.50022 5.12212 9.50022 6.50012C9.50022 7.87812 10.6212 9.00012 12.0002 9.00012C13.3782 9.00012 14.5002 7.87812 14.5002 6.50012ZM2.06222 20.8761C2.62122 15.8821 6.85722 12.0001 12.0002 12.0001C17.1432 12.0001 21.3792 15.8821 21.9382 20.8761C22.0042 21.4731 21.5442 22.0001 20.9442 22.0001H3.05622C2.45622 22.0001 1.99622 21.4731 2.06222 20.8761ZM16.4289 15.3325C15.6008 14.7828 14.6655 14.3842 13.6635 14.1729L13.2764 14.9472C13.107 15.286 12.7607 15.5 12.382 15.5H11.618C11.2393 15.5 10.893 15.286 10.7236 14.9472L10.3365 14.1729C9.33445 14.3842 8.3991 14.7828 7.57097 15.3323L9.57148 20.0001H10.2L10.8392 16.8039C10.9327 16.3365 11.3431 16 11.8198 16H12.1802C12.6569 16 13.0673 16.3365 13.1608 16.8039L13.8 20.0001H14.4285L16.4289 15.3325Z" fill="#313234"/>
</svg>

<svg xmlns="http://www.w3.org/2000/svg" width="24" height="24" fill="none" viewBox="0 0 24 24"><path fill="#313234" fill-rule="evenodd" d="M7.5 6.5a4.5 4.5 0 1 1 9 0 4.5 4.5 0 0 1-9 0m7 0C14.5 5.122 13.378 4 12 4a2.503 2.503 0 0 0-2.5 2.5C9.5 7.878 10.621 9 12 9c1.378 0 2.5-1.122 2.5-2.5M2.062 20.876C2.622 15.882 6.857 12 12 12s9.38 3.882 9.938 8.876A1.007 1.007 0 0 1 20.944 22H3.056c-.6 0-1.06-.527-.994-1.124m14.367-5.544a8 8 0 0 0-2.765-1.16l-.388.775a1 1 0 0 1-.894.553h-.764a1 1 0 0 1-.894-.553l-.388-.774a8 8 0 0 0-2.765 1.16l2 4.667h.629l.64-3.196a1 1 0 0 1 .98-.804h.36a1 1 0 0 1 .98.804L13.8 20h.628z" clip-rule="evenodd"/></svg>
